src/components/Home/Features/assets/feature-open.svg

<svg width="97" height="108" viewBox="0 0 97 108" fill="none" xmlns="http://www.w3.org/2000/svg">
<g clip-path="url(#clip0_311_7819)">
<path fill-rule="evenodd" clip-rule="evenodd" d="M-0.160156 42.6404C-0.160156 41.7125 0.592005 40.9604 1.51984 40.9604H95.0227C95.9505 40.9604 96.7027 41.7125 96.7027 42.6404V106.452C96.7027 107.379 95.9505 108.132 95.0227 108.132H1.51984C0.592005 108.132 -0.160156 107.379 -0.160156 106.452V42.6404ZM3.19984 44.3204V104.772H93.3427V44.3204H3.19984Z" fill="#010101"/>
<path fill-rule="evenodd" clip-rule="evenodd" d="M-0.160156 57.7986C-0.160156 56.8708 0.592005 56.1186 1.51984 56.1186H95.0227C95.9505 56.1186 96.7027 56.8708 96.7027 57.7986C96.7027 58.7264 95.9505 59.4786 95.0227 59.4786H1.51984C0.592005 59.4786 -0.160156 58.7264 -0.160156 57.7986Z" fill="#010101"/>
<path fill-rule="evenodd" clip-rule="evenodd" d="M-0.160156 73.2828C-0.160156 72.355 0.592005 71.6028 1.51984 71.6028H95.0227C95.9505 71.6028 96.7027 72.355 96.7027 73.2828C96.7027 74.2107 95.9505 74.9628 95.0227 74.9628H1.51984C0.592005 74.9628 -0.160156 74.2107 -0.160156 73.2828Z" fill="#010101"/>
<path fill-rule="evenodd" clip-rule="evenodd" d="M-0.160156 90.0256C-0.160156 89.0978 0.592005 88.3456 1.51984 88.3456H95.0227C95.9505 88.3456 96.7027 89.0978 96.7027 90.0256C96.7027 90.9535 95.9505 91.7056 95.0227 91.7056H1.51984C0.592005 91.7056 -0.160156 90.9535 -0.160156 90.0256Z" fill="#010101"/>
<path fill-rule="evenodd" clip-rule="evenodd" d="M30.7073 40.9604C31.6352 40.9604 32.3873 41.7125 32.3873 42.6404V57.7986C32.3873 58.7264 31.6352 59.4786 30.7073 59.4786C29.7795 59.4786 29.0273 58.7264 29.0273 57.7986V42.6404C29.0273 41.7125 29.7795 40.9604 30.7073 40.9604Z" fill="#010101"/>
<path fill-rule="evenodd" clip-rule="evenodd" d="M12.262 56.1186C13.1899 56.1186 13.942 56.8708 13.942 57.7986V73.2828C13.942 74.2106 13.1899 74.9628 12.262 74.9628C11.3342 74.9628 10.582 74.2106 10.582 73.2828V57.7986C10.582 56.8708 11.3342 56.1186 12.262 56.1186Z" fill="#010101"/>
<path fill-rule="evenodd" clip-rule="evenodd" d="M49.5316 56.1186C50.4594 56.1186 51.2116 56.8708 51.2116 57.7986V73.2828C51.2116 74.2106 50.4594 74.9628 49.5316 74.9628C48.6037 74.9628 47.8516 74.2106 47.8516 73.2828V57.7986C47.8516 56.8708 48.6037 56.1186 49.5316 56.1186Z" fill="#010101"/>
<path fill-rule="evenodd" clip-rule="evenodd" d="M86.1761 56.1186C87.1039 56.1186 87.8561 56.8708 87.8561 57.7986V73.2828C87.8561 74.2106 87.1039 74.9628 86.1761 74.9628C85.2483 74.9628 84.4961 74.2106 84.4961 73.2828V57.7986C84.4961 56.8708 85.2483 56.1186 86.1761 56.1186Z" fill="#010101"/>
<path fill-rule="evenodd" clip-rule="evenodd" d="M67.8597 71.6028C68.7875 71.6028 69.5397 72.355 69.5397 73.2828V90.0257C69.5397 90.9535 68.7875 91.7057 67.8597 91.7057C66.9318 91.7057 66.1797 90.9535 66.1797 90.0257V73.2828C66.1797 72.355 66.9318 71.6028 67.8597 71.6028Z" fill="#010101"/>
<path fill-rule="evenodd" clip-rule="evenodd" d="M30.5784 71.6028C31.5063 71.6028 32.2584 72.355 32.2584 73.2828V90.0257C32.2584 90.9535 31.5063 91.7057 30.5784 91.7057C29.6506 91.7057 28.8984 90.9535 28.8984 90.0257V73.2828C28.8984 72.355 29.6506 71.6028 30.5784 71.6028Z" fill="#010101"/>
<path fill-rule="evenodd" clip-rule="evenodd" d="M12.262 88.3456C13.1899 88.3456 13.942 89.0978 13.942 90.0256V106.479C13.942 107.407 13.1899 108.159 12.262 108.159C11.3342 108.159 10.582 107.407 10.582 106.479V90.0256C10.582 89.0978 11.3342 88.3456 12.262 88.3456Z" fill="#010101"/>
<path fill-rule="evenodd" clip-rule="evenodd" d="M49.5316 88.3456C50.4594 88.3456 51.2116 89.0978 51.2116 90.0256V106.452C51.2116 107.379 50.4594 108.132 49.5316 108.132C48.6037 108.132 47.8516 107.379 47.8516 106.452V90.0256C47.8516 89.0978 48.6037 88.3456 49.5316 88.3456Z" fill="#010101"/>
<path fill-rule="evenodd" clip-rule="evenodd" d="M83.6527 88.3456C84.5805 88.3456 85.3327 89.0978 85.3327 90.0256V106.452C85.3327 107.379 84.5805 108.132 83.6527 108.132C82.7248 108.132 81.9727 107.379 81.9727 106.452V90.0256C81.9727 89.0978 82.7248 88.3456 83.6527 88.3456Z" fill="#010101"/>
<path fill-rule="evenodd" clip-rule="evenodd" d="M67.8597 40.9604C68.7875 40.9604 69.5397 41.7125 69.5397 42.6404V57.7986C69.5397 58.7264 68.7875 59.4786 67.8597 59.4786C66.9318 59.4786 66.1797 58.7264 66.1797 57.7986V42.6404C66.1797 41.7125 66.9318 40.9604 67.8597 40.9604Z" fill="#010101"/>
<path d="M82.0303 35.6589H14.5156V63.5486H82.0303V35.6589Z" fill="#B69538"/>
<path fill-rule="evenodd" clip-rule="evenodd" d="M12.8359 35.6589C12.8359 34.7311 13.5881 33.9789 14.5159 33.9789H82.0307C82.9585 33.9789 83.7107 34.7311 83.7107 35.6589V63.5486C83.7107 64.4764 82.9585 65.2286 82.0307 65.2286H14.5159C13.5881 65.2286 12.8359 64.4764 12.8359 63.5486V35.6589ZM16.1959 37.3389V61.8686H80.3507V37.3389H16.1959Z" fill="#010101"/>
<path d="M35.3322 53.8778C34.214 54.9356 32.7332 55.525 31.194 55.525C29.6548 55.525 28.174 54.9356 27.0558 53.8778C26.0123 52.7362 25.4336 51.2455 25.4336 49.6989C25.4336 48.1522 26.0123 46.6615 27.0558 45.5199C28.176 44.4662 29.6561 43.8795 31.194 43.8795C32.7319 43.8795 34.2119 44.4662 35.3322 45.5199C36.3757 46.6615 36.9544 48.1522 36.9544 49.6989C36.9544 51.2455 36.3757 52.7362 35.3322 53.8778ZM31.194 53.7691C31.7044 53.7891 32.2128 53.6954 32.6826 53.495C33.1524 53.2945 33.5717 52.9923 33.9105 52.6101C34.578 51.7849 34.9422 50.7557 34.9422 49.6943C34.9422 48.633 34.578 47.6038 33.9105 46.7786C33.5603 46.4104 33.139 46.1172 32.672 45.9168C32.205 45.7165 31.7021 45.6132 31.194 45.6132C30.6858 45.6132 30.183 45.7165 29.716 45.9168C29.249 46.1172 28.8276 46.4104 28.4775 46.7786C27.8155 47.608 27.455 48.6377 27.455 49.6989C27.455 50.76 27.8155 51.7897 28.4775 52.6191C28.8143 52.9983 29.231 53.2981 29.6976 53.4969C30.1642 53.6958 30.6691 53.7887 31.1759 53.7691H31.194Z" fill="black"/>
<path d="M41.4741 55.3175H39.5V44.062H44.4622C44.9608 44.0315 45.4602 44.106 45.9282 44.2807C46.3961 44.4554 46.8222 44.7264 47.1788 45.0762C47.8081 45.7599 48.1574 46.6552 48.1574 47.5845C48.1574 48.5137 47.8081 49.409 47.1788 50.0927C46.8195 50.4381 46.3928 50.7057 45.9253 50.8786C45.4579 51.0516 44.9598 51.1262 44.4622 51.0978H41.4741V55.3175ZM44.1906 49.3502C44.6953 49.3711 45.1885 49.1958 45.5669 48.8612C45.7427 48.6995 45.8815 48.5017 45.9737 48.2813C46.066 48.0609 46.1094 47.8232 46.1012 47.5845C46.111 47.3415 46.0683 47.0993 45.9761 46.8743C45.8839 46.6493 45.7444 46.4468 45.5669 46.2805C45.1885 45.9459 44.6953 45.7707 44.1906 45.7916H41.4741V49.3502H44.1906Z" fill="black"/>
<path d="M58.168 55.3175H50.4531V44.0621H58.168V45.8006H52.4271V48.7073H58.0504V50.4459H52.4271V53.588H58.168V55.3175Z" fill="black"/>
<path d="M70.6467 55.3175H68.7361L62.8593 47.2585V55.3175H60.8672V44.0621H62.8955L68.6545 51.8585V44.0621H70.6467V55.3175Z" fill="black"/>
<path fill-rule="evenodd" clip-rule="evenodd" d="M46.9655 5.94963C47.613 5.32911 48.6338 5.32664 49.2843 5.94402L79.311 34.4404C79.984 35.0791 80.0118 36.1424 79.3731 36.8154C78.7344 37.4884 77.671 37.5163 76.998 36.8775L48.1335 9.48407L19.5533 36.8719C18.8834 37.5139 17.8199 37.4912 17.178 36.8213C16.536 36.1514 16.5587 35.0879 17.2286 34.446L46.9655 5.94963Z" fill="#010101"/>
<path d="M48.1296 12.8039C51.2452 12.8039 53.7709 10.2782 53.7709 7.16256C53.7709 4.04694 51.2452 1.52124 48.1296 1.52124C45.014 1.52124 42.4883 4.04694 42.4883 7.16256C42.4883 10.2782 45.014 12.8039 48.1296 12.8039Z" fill="#B69538"/>
<path fill-rule="evenodd" clip-rule="evenodd" d="M48.1299 3.20125C45.9421 3.20125 44.1686 4.97479 44.1686 7.16257C44.1686 9.35034 45.9421 11.1239 48.1299 11.1239C50.3177 11.1239 52.0912 9.35034 52.0912 7.16257C52.0912 4.97479 50.3177 3.20125 48.1299 3.20125ZM40.8086 7.16257C40.8086 3.11911 44.0865 -0.158752 48.1299 -0.158752C52.1734 -0.158752 55.4512 3.11911 55.4512 7.16257C55.4512 11.206 52.1734 14.4839 48.1299 14.4839C44.0865 14.4839 40.8086 11.206 40.8086 7.16257Z" fill="#010101"/>
</g>
<defs>
<clipPath id="clip0_311_7819">
<rect width="96.5453" height="108" fill="white"/>
</clipPath>
</defs>
</svg>

<svg width="97" height="108" fill="none" xmlns="http://www.w3.org/2000/svg"><g clip-path="url(#clip0_311_7819)"><path fill-rule="evenodd" clip-rule="evenodd" d="M-.16 42.64c0-.928.752-1.68 1.68-1.68h93.503c.928 0 1.68.752 1.68 1.68v63.812a1.68 1.68 0 0 1-1.68 1.68H1.52a1.68 1.68 0 0 1-1.68-1.68V42.64zm3.36 1.68v60.452h90.143V44.32H3.2z" fill="#010101"/><path fill-rule="evenodd" clip-rule="evenodd" d="M-.16 57.799c0-.928.752-1.68 1.68-1.68h93.503a1.68 1.68 0 0 1 0 3.36H1.52a1.68 1.68 0 0 1-1.68-1.68zm0 15.484c0-.928.752-1.68 1.68-1.68h93.503a1.68 1.68 0 0 1 0 3.36H1.52a1.68 1.68 0 0 1-1.68-1.68zm0 16.743c0-.928.752-1.68 1.68-1.68h93.503a1.68 1.68 0 0 1 0 3.36H1.52a1.68 1.68 0 0 1-1.68-1.68z" fill="#010101"/><path fill-rule="evenodd" clip-rule="evenodd" d="M30.707 40.96c.928 0 1.68.752 1.68 1.68V57.8a1.68 1.68 0 1 1-3.36 0V42.64c0-.928.752-1.68 1.68-1.68zM12.262 56.12c.928 0 1.68.752 1.68 1.68v15.484a1.68 1.68 0 1 1-3.36 0V57.799c0-.928.752-1.68 1.68-1.68zm37.27 0c.927 0 1.68.752 1.68 1.68v15.484a1.68 1.68 0 0 1-3.36 0V57.799c0-.928.752-1.68 1.68-1.68zm36.644 0c.928 0 1.68.752 1.68 1.68v15.484a1.68 1.68 0 0 1-3.36 0V57.799c0-.928.752-1.68 1.68-1.68zM67.86 71.603c.927 0 1.68.752 1.68 1.68v16.743a1.68 1.68 0 0 1-3.36 0V73.283c0-.928.752-1.68 1.68-1.68zm-37.282 0c.928 0 1.68.752 1.68 1.68v16.743a1.68 1.68 0 1 1-3.36 0V73.283c0-.928.753-1.68 1.68-1.68zM12.262 88.346c.928 0 1.68.752 1.68 1.68v16.453a1.68 1.68 0 1 1-3.36 0V90.026c0-.928.752-1.68 1.68-1.68zm37.27 0c.927 0 1.68.752 1.68 1.68v16.426a1.68 1.68 0 0 1-3.36 0V90.026c0-.928.752-1.68 1.68-1.68zm34.12 0c.928 0 1.68.752 1.68 1.68v16.426a1.68 1.68 0 0 1-3.36 0V90.026c0-.928.753-1.68 1.68-1.68zM67.86 40.96c.927 0 1.68.752 1.68 1.68V57.8a1.68 1.68 0 0 1-3.36 0V42.64c0-.928.752-1.68 1.68-1.68z" fill="#010101"/><path d="M82.03 35.659H14.516v27.89H82.03v-27.89z" fill="#B69538"/><path fill-rule="evenodd" clip-rule="evenodd" d="M12.836 35.659c0-.928.752-1.68 1.68-1.68H82.03c.927 0 1.68.752 1.68 1.68v27.89a1.68 1.68 0 0 1-1.68 1.68H14.516a1.68 1.68 0 0 1-1.68-1.68v-27.89zm3.36 1.68v24.53H80.35v-24.53H16.196z" fill="#010101"/><path d="M35.332 53.878a6.022 6.022 0 0 1-8.276 0 6.194 6.194 0 0 1 0-8.358 6.04 6.04 0 0 1 8.276 0 6.194 6.194 0 0 1 0 8.358zm-4.138-.109a3.45 3.45 0 0 0 2.716-1.159 4.636 4.636 0 0 0 0-5.831 3.75 3.75 0 0 0-5.432 0 4.681 4.681 0 0 0 0 5.84 3.43 3.43 0 0 0 2.698 1.15h.018zm10.28 1.549H39.5V44.062h4.962a3.569 3.569 0 0 1 2.717 1.014 3.704 3.704 0 0 1 0 5.017 3.621 3.621 0 0 1-2.717 1.005h-2.988v4.22zm2.717-5.968c.504.021.997-.154 1.376-.489a1.657 1.657 0 0 0 .534-1.276 1.693 1.693 0 0 0-.534-1.304 1.956 1.956 0 0 0-1.376-.49h-2.717v3.56h2.717zm13.977 5.968h-7.715V44.062h7.715v1.739h-5.74v2.906h5.622v1.739h-5.623v3.142h5.741v1.73zm12.479 0h-1.91l-5.878-8.06v8.06h-1.992V44.062h2.029l5.758 7.797v-7.797h1.993v11.256z" fill="#000"/><path fill-rule="evenodd" clip-rule="evenodd" d="M46.965 5.95a1.68 1.68 0 0 1 2.32-.006L79.31 34.44a1.68 1.68 0 1 1-2.313 2.438L48.133 9.483l-28.58 27.388a1.68 1.68 0 1 1-2.324-2.426L46.965 5.95z" fill="#010101"/><path d="M48.13 12.804a5.641 5.641 0 1 0 0-11.283 5.641 5.641 0 0 0 0 11.283z" fill="#B69538"/><path fill-rule="evenodd" clip-rule="evenodd" d="M48.13 3.201a3.961 3.961 0 1 0 0 7.923 3.961 3.961 0 0 0 0-7.923zm-7.321 3.962a7.321 7.321 0 1 1 14.642 0 7.321 7.321 0 0 1-14.642 0z" fill="#010101"/></g><defs><clipPath id="clip0_311_7819"><path fill="#fff" d="M0 0H96.545V108H0z"/></clipPath></defs></svg>
